utils/icons-generator/ic_action_edit.svg

<?xml version="1.0" encoding="UTF-8"?>
<svg xmlns="http://www.w3.org/2000/svg" xmlns:xlink="http://www.w3.org/1999/xlink" width="1000pt" height="1000pt" viewBox="0 0 1000 1000" version="1.1">
<g id="surface1">
<path style=" stroke:none;fill-rule:nonzero;fill:rgb(0%,0%,0%);fill-opacity:1;" d="M 125 718.75 L 125 875 L 281.25 875 L 742.082031 414.167969 L 585.832031 257.917969 Z M 862.917969 293.332031 C 879.167969 277.082031 879.167969 250.832031 862.917969 234.582031 L 765.417969 137.082031 C 749.167969 120.832031 722.917969 120.832031 706.667969 137.082031 L 630.417969 213.332031 L 786.667969 369.582031 Z M 862.917969 293.332031 "/>
</g>
</svg>

<?xml version="1.0" encoding="UTF-8" standalone="no"?>
<svg
   xmlns:dc="http://purl.org/dc/elements/1.1/"
   xmlns:cc="http://creativecommons.org/ns#"
   xmlns:rdf="http://www.w3.org/1999/02/22-rdf-syntax-ns#"
   xmlns:svg="http://www.w3.org/2000/svg"
   xmlns="http://www.w3.org/2000/svg"
   xmlns:sodipodi="http://sodipodi.sourceforge.net/DTD/sodipodi-0.dtd"
   xmlns:inkscape="http://www.inkscape.org/namespaces/inkscape"
   width="1000pt"
   height="1000pt"
   viewBox="0 0 1000 1000"
   version="1.1"
   id="svg24"
   sodipodi:docname="ic_action_edit.svg"
   inkscape:version="0.92.4 (5da689c313, 2019-01-14)">
  <metadata
     id="metadata30">
    <rdf:RDF>
      <cc:Work
         rdf:about="">
        <dc:format>image/svg+xml</dc:format>
        <dc:type
           rdf:resource="http://purl.org/dc/dcmitype/StillImage" />
      </cc:Work>
    </rdf:RDF>
  </metadata>
  <defs
     id="defs28" />
  <sodipodi:namedview
     pagecolor="#ffffff"
     bordercolor="#666666"
     borderopacity="1"
     objecttolerance="10"
     gridtolerance="10"
     guidetolerance="10"
     inkscape:pageopacity="0"
     inkscape:pageshadow="2"
     inkscape:window-width="2560"
     inkscape:window-height="1346"
     id="namedview26"
     showgrid="false"
     inkscape:zoom="0.84225"
     inkscape:cx="666.66667"
     inkscape:cy="666.66667"
     inkscape:window-x="-11"
     inkscape:window-y="-11"
     inkscape:window-maximized="1"
     inkscape:current-layer="svg24" />
  <g
     id="surface1"
     transform="matrix(1.329813,0,0,1.329813,-164.92387,-164.88908)">
    <path
       style="fill:#000000;fill-opacity:1;fill-rule:nonzero;stroke:none"
       d="M 125,718.75 V 875 h 156.25 l 460.83203,-460.83203 -156.25,-156.25 z M 862.91797,293.33203 c 16.25,-16.25 16.25,-42.5 0,-58.75 l -97.5,-97.5 c -16.25,-16.25 -42.5,-16.25 -58.75,0 l -76.25,76.25 156.25,156.25 z m 0,0"
       id="path21"
       inkscape:connector-curvature="0" />
  </g>
</svg>
